!!!!SEGMENT: pl-wtm--r-1726--002_stefani-jozef--piekna-dziewczyna-z-gandawy-kontredans.krn
!!!cenid: 18xx:1888
!!!COM: Stefani, Józef
!!!COM-rismID: pe30024097
!!!CDT: 1800/04/16-1876/03/19
!!!CNT: Polish
!!!GTL: Piękna dziewczyna z Gandawy
!!!OTL: Kontredans [2]
!!!OMV: 002
!!!PDT:
!!!AGN: Secular
!!!SMS-siglum: PL-Wtm
!!!SMS-shelfmark: R 1726
!!!SMS-shelfwork: 001-002 G
!!!SMS-variant:
!!!SMS-altvar:
!!!NIFC-rismSourceID: 1001129098
!!!NIFC-rismChildID: 1001129100
!!!NIFC-islandoraID: pl-wtm:28458
!!!URL-pdf-islandora: https://repozytorium.nifc.pl/islandora/object/pl-wtm%3A28458/datastream/PDF/view
!!!URL-scan: https://polish.musicsources.pl/pl/lokalizacje/galeria/rekopisy/6463 @EN{Scan on Polish Music Sources Website} @PL{Skany w portalu Dziedzictwo Muzyki Polskiej w otwartym dostępie}
!!!IIIF:
!!!ONB-nifc: UWAGA: No. 2. Partie perkusji zapisane osobno na końcu rękopisu
!!!AIN: 1 bdrum 1 clars 1 cor 1 empty 1 picco 1 timpa 1 trngl 1 tromp 1 tromt 1 viola 2 violn
!!!key:
**kern	**kern	**dynam	**kern	**dynam	**kern	**dynam	**kern	**dynam	**kern	**dynam	**kern	**dynam	**kern	**dynam	**kern	**dynam	**kern	**dynam	**kern	**dynam	**kern	**dynam
*part12	*part11	*part11	*part10	*part10	*part9	*part9	*part8	*part8	*part7	*part7	*part6	*part6	*part5	*part5	*part4	*part4	*part3	*part3	*part2	*part2	*part1	*part1
*staff12	*staff11	*	*staff10	*	*staff9	*	*staff8	*	*staff7	*	*staff6	*	*staff5	*	*staff4	*	*staff3	*	*staff2	*	*staff1	*
*group4	*group4	*	*group4	*	*group3	*	*group3	*	*group3	*	*group3	*	*group2	*	*group2	*	*group2	*	*group1	*	*group1	*
*>[A,B,B]	*>[A,B,B]	*>[A,B,B]	*>[A,B,B]	*>[A,B,B]	*>[A,B,B]	*>[A,B,B]	*>[A,B,B]	*>[A,B,B]	*>[A,B,B]	*>[A,B,B]	*>[A,B,B]	*>[A,B,B]	*>[A,B,B]	*>[A,B,B]	*>[A,B,B]	*>[A,B,B]	*>[A,B,B]	*>[A,B,B]	*>[A,B,B]	*>[A,B,B]	*>[A,B,B]	*>[A,B,B]
*>A	*>A	*>A	*>A	*>A	*>A	*>A	*>A	*>A	*>A	*>A	*>A	*>A	*>A	*>A	*>A	*>A	*>A	*>A	*>A	*>A	*>A	*>A
*Ibdrum	*Itrngl	*	*Itimpa	*	*Iempty	*	*Iviola	*	*Ivioln	*	*Ivioln	*	*Itromt	*	*Itromp	*	*Icor	*	*Iclars	*	*Ipicco	*
*I"G. C.	*I"Triangolo	*	*I"Timpani	*	*I"Basſi	*	*I"Viole	*	*I"Violino 2o	*	*I"Violino I	*	*I"Trombone	*	*I"in C Trombe Chromatique	*	*I"in d: Corni	*	*I"in C Clarinetti	*	*I"Picolo et Flauto	*
*I'[bass drum]	*I'[triangle]	*	*I'[timp]	*	*I'[cb]	*	*I'[vla]	*	*I'[vl 2]	*	*I'[vl I]	*	*I'[trb]	*	*I'[tr in C]	*	*I'[cor in D]	*	*I'[cl in C]	*	*I'[fl. picc et fl]	*
*clefF4	*clefG2	*	*clefF4	*	*clefF4	*	*clefC3	*	*clefG2	*	*clefG2	*	*clefF4	*	*clefG2	*	*clefG2	*	*clefG2	*	*clefG2	*
*	*	*	*	*	*	*	*	*	*	*	*	*	*	*	*	*	*ITrd6c10	*	*	*	*ITrd0c0	*
*k[]	*k[]	*	*k[]	*	*k[f#]	*	*k[f#]	*	*k[f#]	*	*k[f#]	*	*k[f#]	*	*k[f#]	*	*k[f#c#]	*	*k[f#]	*	*k[f#]	*
*G:	*G:	*	*G:	*	*G:	*	*G:	*	*G:	*	*G:	*	*G:	*	*G:	*	*G:	*	*G:	*	*G:	*
*M2/4	*M2/4	*	*M2/4	*	*M2/4	*	*M2/4	*	*M2/4	*	*M2/4	*	*M2/4	*	*M2/4	*	*M2/4	*	*M2/4	*	*M2/4	*
*all\right	*all\right	*	*all\right	*	*all\right	*	*all\right	*	*all\right	*	*all\right	*	*all\right	*	*all\right	*	*all\right	*	*all\right	*	*all\right	*
=1	=1	=1	=1	=1	=1	=1	=1	=1	=1	=1	=1	=1	=1	=1	=1	=1	=1	=1	=1	=1	=1	=1
!LO:TX:a:t=9.	!LO:TX:a:t=9.	!	!LO:TX:a:t=9.	!	!	!	!	!	!	!LO:DY:rj	!	!	!	!	!	!	!	!	!	!	!	!
2r	2r	.	2r	.	8G\	.	8r	.	8r	f	2r	.	2r	.	2r	.	2r	.	2r	.	2r	.
.	.	.	.	.	8r	.	8d 8G\	.	8g 8B/	.	.	.	.	.	.	.	.	.	.	.	.	.
.	.	.	.	.	8GG/	.	8r	.	8r	.	.	.	.	.	.	.	.	.	.	.	.	.
.	.	.	.	.	8r	.	8d 8G\	.	8g 8B/	.	.	.	.	.	.	.	.	.	.	.	.	.
=2	=2	=2	=2	=2	=2	=2	=2	=2	=2	=2	=2	=2	=2	=2	=2	=2	=2	=2	=2	=2	=2	=2
*	*	*	*	*	*	*	*	*	*	*	*	*	*	*	*	*	*^	*	*	*	*	*
!	!	!	!	!	!	!	!	!	!	!	!	!LO:DY:rj	!	!	!	!	!	!	!	!	!	!	!
.	.	.	.	.	.	.	.	.	.	.	(16qqee/LL	f	.	.	.	.	.	.	.	.	.	(16qqee/LL	.
.	.	.	.	.	.	.	.	.	.	.	16qqdd/	.	.	.	.	.	.	.	.	.	.	16qqdd/	.
.	.	.	.	.	.	.	.	.	.	.	16qqcc#X/JJ	.	.	.	.	.	.	.	.	.	.	16qqcc#X/JJ	.
!	!	!	!	!	!	!	!	!	!	!	!	!	!	!LO:DY:rj	!	!	!	!	!	!	!LO:DY:rj	!	!
2r	2r	.	2r	.	8G\	.	8r	.	8r	.	8dd\)	.	8G\	f	2r	.	8r	8ryy	.	8r	f	8dd\)	.
*	*	*	*	*	*	*	*tremolo	*	*tremolo	*	*	*	*	*	*	*	*tremolo	*tremolo	*	*tremolo	*	*	*
.	.	.	.	.	8r	.	8dL 8G/	.	8gL 8B/	.	16bb'\LL	.	8r	.	.	.	8d/L	8d\L	.	8bL 8g/	.	16bb'\LL	.
.	.	.	.	.	.	.	.	.	.	.	16r	.	.	.	.	.	.	.	.	.	.	16r	.
.	.	.	.	.	4r	.	8d 8G/	.	8g 8B/	.	16bb'\	.	4r	.	.	.	8d/	8d\	.	8b 8g/	.	16bb'\	.
.	.	.	.	.	.	.	.	.	.	.	16r	.	.	.	.	.	.	.	.	.	.	16r	.
.	.	.	.	.	.	.	8dJ 8G/	.	8gJ 8B/	.	16bb'\JJ	.	.	.	.	.	8d/J	8d\J	.	8bJ 8g/	.	16bb'\JJ	.
.	.	.	.	.	.	.	.	.	.	.	16r	.	.	.	.	.	.	.	.	.	.	16rccc	.
=3	=3	=3	=3	=3	=3	=3	=3	=3	=3	=3	=3	=3	=3	=3	=3	=3	=3	=3	=3	=3	=3	=3	=3
2r	2r	.	2r	.	8C/	.	8r	.	8r	.	16.bb'\LL	.	8C/	.	4r	.	8r	8ryy	.	8r	.	16.bb\LL	.
.	.	.	.	.	.	.	.	.	.	.	32ccc'\K	.	.	.	.	.	.	.	.	.	.	32ccc\K	.
.	.	.	.	.	8r	.	8eL 8c\	.	8gL 8A/	.	16.gg#X'\	.	8r	.	.	.	8e/L	8e\L	.	8ccL 8a/	.	16.gg#X\	.
.	.	.	.	.	.	.	.	.	.	.	32aa'\JJk	.	.	.	.	.	.	.	.	.	.	32aa\JJk	.
.	.	.	.	.	4r	.	8e 8c\	.	8g 8A/	.	(8..ee\L	.	4r	.	(8..e/L	.	8e/	8e\	.	8cc 8a/	.	(8..ee\L	.
.	.	.	.	.	.	.	8eJ 8c\	.	8gJ 8A/	.	.	.	.	.	.	.	8e/J	8e\J	.	8ccJ 8a/	.	.	.
.	.	.	.	.	.	.	.	.	.	.	32ee-X\Jkk	.	.	.	32e-X/Jkk	.	.	.	.	.	.	32ee-X\Jkk	.
=4	=4	=4	=4	=4	=4	=4	=4	=4	=4	=4	=4	=4	=4	=4	=4	=4	=4	=4	=4	=4	=4	=4	=4
*	*	*	*	*	*	*	*	*	*	*	*	*	*	*	*	*	*	*	*	*rep	*	*	*
2r	2r	.	2r	.	8D\	.	8r	.	8r	.	8dd\	.	8D/	.	8d/)	.	8r	8ryy	.	8r	.	8dd\)	.
.	.	.	.	.	8r	.	8eL 8d\	.	8f#L 8A/	.	16aa'\LL)	.	8r	.	8r	.	8f#/L	8d\L	.	8ccL 8a/	.	16aa'\	.
.	.	.	.	.	.	.	.	.	.	.	16r	.	.	.	.	.	.	.	.	.	.	16r	.
.	.	.	.	.	4r	.	8e 8d\	.	8f# 8A/	.	16aa'\	.	4r	.	4r	.	8f#/	8d\	.	8cc 8a/	.	16aa'\	.
.	.	.	.	.	.	.	.	.	.	.	16r	.	.	.	.	.	.	.	.	.	.	16r	.
.	.	.	.	.	.	.	8eJ 8d\	.	8f#J 8A/	.	16aa'\JJ	.	.	.	.	.	8f#/J	8d\J	.	8ccJ 8a/	.	16aa'\	.
.	.	.	.	.	.	.	.	.	.	.	16r	.	.	.	.	.	.	.	.	.	.	16r	.
*	*	*	*	*	*	*	*	*	*	*	*	*	*	*	*	*	*	*	*	*Xrep	*	*	*
=5	=5	=5	=5	=5	=5	=5	=5	=5	=5	=5	=5	=5	=5	=5	=5	=5	=5	=5	=5	=5	=5	=5	=5
2r	2r	.	2r	.	8GG/	.	8r	.	8r	.	16.aa\LL	.	8GG/	.	4r	.	8r	8ryy	.	8r	.	16.aa\LL	.
.	.	.	.	.	.	.	.	.	.	.	32bb\K	.	.	.	.	.	.	.	.	.	.	32bb\K	.
.	.	.	.	.	8r	.	8dL 8G\	.	8gL 8B/	.	16.ff#\	.	8r	.	.	.	8g/L	8d\L	.	8bL 8g/	.	16.ff#\	.
.	.	.	.	.	.	.	.	.	.	.	32aa\JJk	.	.	.	.	.	.	.	.	.	.	32aa\JJk	.
.	.	.	.	.	4r	.	8d 8G\	.	8g 8B/	.	16.gg\LL	.	4r	.	16.g/LL	.	8g/	8d\	.	8b 8g/	.	16.gg\LL	.
.	.	.	.	.	.	.	.	.	.	.	32ff#\K	.	.	.	32f#/K	.	.	.	.	.	.	32ff#\K	.
.	.	.	.	.	.	.	8dJ 8G\	.	8gJ 8B/	.	16.ee\	.	.	.	16.e/	.	8g/J	8d\J	.	8bJ 8g/	.	16.ee\	.
.	.	.	.	.	.	.	.	.	.	.	32ee-X\JJk	.	.	.	32e-X/JJk	.	.	.	.	.	.	32ee-X\JJk	.
!!LO:LB:g=original
=6	=6	=6	=6	=6	=6	=6	=6	=6	=6	=6	=6	=6	=6	=6	=6	=6	=6	=6	=6	=6	=6	=6	=6
!	!	!	!	!	!	!	!	!	!	!	!	!	!LO:TX:t=P:problem=zmiana kolejności instrumentów w partyturze	!	!LO:TX:t=P:problem=zmiana kolejności instrumentów w partyturze	!	!	!	!	!	!	!	!
!	!	!	!	!	!	!	!	!	!	!	!	!	!LO:TX:a:t=Trombone	!	!LO:TX:a:t=Trombe	!	!	!	!	!	!	!	!
2r	2r	.	2r	.	8G\	.	8r	.	8r	.	8dd\	.	8G\	.	8d/	.	8r	8ryy	.	8r	.	8dd\	.
.	.	.	.	.	8r	.	8dL 8G/	.	8gL 8B/	.	16bb\LL	.	8r	.	8r	.	8d/L	8d\L	.	8bL 8g/	.	16bb\LL	.
.	.	.	.	.	.	.	.	.	.	.	16r	.	.	.	.	.	.	.	.	.	.	16r	.
.	.	.	.	.	4r	.	8d 8G/	.	8g 8B/	.	16bb\	.	4r	.	4r	.	8d/	8d\	.	8b 8g/	.	16bb\	.
.	.	.	.	.	.	.	.	.	.	.	16r	.	.	.	.	.	.	.	.	.	.	16r	.
.	.	.	.	.	.	.	8dJ 8G/	.	8gJ 8B/	.	16bb\JJ	.	.	.	.	.	8d/J	8d\J	.	8bJ 8g/	.	16bb\JJ	.
.	.	.	.	.	.	.	.	.	.	.	16r	.	.	.	.	.	.	.	.	.	.	16rdd	.
=7	=7	=7	=7	=7	=7	=7	=7	=7	=7	=7	=7	=7	=7	=7	=7	=7	=7	=7	=7	=7	=7	=7	=7
2r	2r	.	2r	.	8C/	.	8r	.	8r	.	16.bb\LL	.	8C/	.	4r	.	8r	8ryy	.	8r	.	16.bb\LL	.
.	.	.	.	.	.	.	.	.	.	.	32ccc\K	.	.	.	.	.	.	.	.	.	.	32ccc\K	.
.	.	.	.	.	8r	.	8eL 8c\	.	8gL 8A/	.	16.gg#X\	.	8r	.	.	.	8e/L	8cX\L	.	8ccL 8a 8g/	.	16.gg#X\	.
.	.	.	.	.	.	.	.	.	.	.	32aa\JJk	.	.	.	.	.	.	.	.	.	.	32aa\JJk	.
.	.	.	.	.	4r	.	8e 8c\	.	8g 8A/	.	(8..eee\L	.	4r	.	(>8.eeL 8.e/	.	8e/	8c\	.	8cc 8a 8g/	.	(8.eee\L	.
.	.	.	.	.	.	.	8eJ 8c\	.	8gJ 8A/	.	.	.	.	.	.	.	8e/J	8c\J	.	8ccJ 8a 8g/	.	.	.
.	.	.	.	.	.	.	.	.	.	.	.	.	.	.	16ee-XJk 16e-X/	.	.	.	.	.	.	16eee-X\Jk	.
.	.	.	.	.	.	.	.	.	.	.	32eee-X\Jkk	.	.	.	.	.	.	.	.	.	.	.	.
*	*	*	*	*	*	*	*Xtremolo	*	*Xtremolo	*	*	*	*	*	*	*	*	*Xtremolo	*	*Xtremolo	*	*	*
=8	=8	=8	=8	=8	=8	=8	=8	=8	=8	=8	=8	=8	=8	=8	=8	=8	=8	=8	=8	=8	=8	=8	=8
2r	2r	.	2r	.	8D\	.	8r	.	8r	.	8ddd\	.	8D\	.	8dd 8d/)	.	8r	8ryy	.	8r	.	8ddd\)	.
.	.	.	.	.	8r	.	8d 8c\	.	8f# 8A/	.	16aa\)	.	8r	.	8r	.	8f#/	8d\	.	8cc 8a/	.	16aa'\	.
.	.	.	.	.	.	.	.	.	.	.	16r	.	.	.	.	.	.	.	.	.	.	16r	.
.	.	.	.	.	8D\	.	8r	.	8r	.	16aa\	.	8D\	.	4r	.	8r	8ryy	.	8r	.	16aa'\	.
.	.	.	.	.	.	.	.	.	.	.	16r	.	.	.	.	.	.	.	.	.	.	16r	.
.	.	.	.	.	8r	.	8d 8c\	.	8f# 8A/	.	16aa\	.	8r	.	.	.	8f#/	8d\	.	8cc 8a/	.	16aa'\	.
.	.	.	.	.	.	.	.	.	.	.	16r	.	.	.	.	.	.	.	.	.	.	16r	.
=9	=9	=9	=9	=9	=9	=9	=9	=9	=9	=9	=9	=9	=9	=9	=9	=9	=9	=9	=9	=9	=9	=9	=9
2r	2r	.	2r	.	8G\L	.	8dL 8G\	.	8gL 8B/	.	16.bb\LL	.	8G\L	.	2r	.	8g/L	8d\L	.	8bL 8g/	.	16.bb\LL	.
.	.	.	.	.	.	.	.	.	.	.	32ccc\K	.	.	.	.	.	.	.	.	.	.	32ccc\K	.
.	.	.	.	.	8D\	.	8d 8A\	.	8f# 8c/	.	16.aa\	.	8D\	.	.	.	8f#/J	8d\J	.	8ccJ 8a/	.	16.aa\	.
.	.	.	.	.	.	.	.	.	.	.	32bb\JJk	.	.	.	.	.	.	.	.	.	.	32bb\JJk	.
.	.	.	.	.	8GG\J	.	8dJ 8G\	.	8gJ 8B/	.	8gg\	.	8G\J	.	.	.	8g/	8d\	.	8b 8g/	.	8gg\	.
.	.	.	.	.	8r	.	8r	.	8r	.	8r	.	8r	.	.	.	8r	8ryy	.	8r	.	8r	.
*	*	*	*	*	*	*	*	*	*	*	*	*	*	*	*	*	*v	*v	*	*	*	*	*
!!LO:PB:g=original
=10!|:	=10!|:	=10!|:	=10!|:	=10!|:	=10!|:	=10!|:	=10!|:	=10!|:	=10!|:	=10!|:	=10!|:	=10!|:	=10!|:	=10!|:	=10!|:	=10!|:	=10!|:	=10!|:	=10!|:	=10!|:	=10!|:	=10!|:
*>B	*>B	*>B	*>B	*>B	*>B	*>B	*>B	*>B	*>B	*>B	*>B	*>B	*>B	*>B	*>B	*>B	*>B	*>B	*>B	*>B	*>B	*>B
!LO:TX:b:t=7	!	!	!	!	!	!	!	!	!	!	!	!	!	!	!	!	!	!	!	!	!	!
!LO:TX:a:t=7	!LO:TX:a:t=7	!	!LO:TX:a:t=7	!	!	!LO:DY:rj	!	!	!	!	!	!	!	!	!	!	!	!	!	!	!	!
2r	2r	.	2r	.	8D\	p	8r	.	8r	.	8r	.	2r	.	8a 8f#/	.	2ryy	.	8a 8f#/	.	2ryy	.
.	.	.	.	.	.	.	.	.	.	.	.	.	.	.	(8qb (8qg/	.	.	.	(8qb (8qg/	.	.	.
!	!	!	!	!	!	!	!	!	!	!	!	!LO:DY:rj	!	!	!	!	!	!	!	!	!	!
.	.	.	.	.	8r	.	8A/	.	8d/	.	8f#/	p	.	.	16.aLL 16.f#/))	.	.	.	16.aLL 16.f#/))	.	.	.
.	.	.	.	.	.	.	.	.	.	.	.	.	.	.	32g#XJJk 32e#X/|	.	.	.	32g#XJJk 32e#X/|	.	.	.
.	.	.	.	.	8D\	.	8r	.	8r	.	8r	.	.	.	8a 8f#/|	.	.	.	16aLL 16f#'/	.	.	.
.	.	.	.	.	.	.	.	.	.	.	.	.	.	.	.	.	.	.	16r	.	.	.
.	.	.	.	.	8r	.	8A/	.	8d/	.	8f#/	.	.	.	8r	.	.	.	16ff#JJ 16dd'/	.	.	.
.	.	.	.	.	.	.	.	.	.	.	.	.	.	.	.	.	.	.	16rcc	.	.	.
=11	=11	=11	=11	=11	=11	=11	=11	=11	=11	=11	=11	=11	=11	=11	=11	=11	=11	=11	=11	=11	=11	=11
2r	2r	.	2r	.	8GG/	.	8r	.	8r	.	8r	.	2r	.	2r	.	2ryy	.	16eeLL 16cc#X\	.	2ryy	.
.	.	.	.	.	.	.	.	.	.	.	.	.	.	.	.	.	.	.	16r	.	.	.
.	.	.	.	.	8r	.	8B/	.	8d/	.	8g/	.	.	.	.	.	.	.	16cc#JJ 16a\	.	.	.
.	.	.	.	.	.	.	.	.	.	.	.	.	.	.	.	.	.	.	16r	.	.	.
.	.	.	.	.	8GG/	.	8r	.	8r	.	8r	.	.	.	.	.	.	.	([8eeL 8cc#\	.	.	.
.	.	.	.	.	8r	.	8B/	.	8d/	.	8g/	.	.	.	.	.	.	.	16.ee]L 16.cc#\	.	.	.
.	.	.	.	.	.	.	.	.	.	.	.	.	.	.	.	.	.	.	32ddJJk 32b\)	.	.	.
=12	=12	=12	=12	=12	=12	=12	=12	=12	=12	=12	=12	=12	=12	=12	=12	=12	=12	=12	=12	=12	=12	=12
2r	2r	.	2r	.	8AA/	.	8r	.	8r	.	8r	.	2r	.	16cc#XLL 16an/	.	2ryy	.	16cc#XLL 16an/	.	2ryy	.
.	.	.	.	.	.	.	.	.	.	.	.	.	.	.	16r	.	.	.	16r	.	.	.
!	!	!	!	!	!	!	!	!	!LO:SIC:v:s=8c#	!	!	!	!	!	!	!	!	!	!	!	!	!
.	.	.	.	.	8r	.	8A/	.	8c/	.	8g/	.	.	.	16b 16g/	.	.	.	16b 16g'/	.	.	.
.	.	.	.	.	.	.	.	.	.	.	.	.	.	.	16r	.	.	.	16r	.	.	.
.	.	.	.	.	8AA/	.	8r	.	8r	.	8r	.	.	.	16g 16e/	.	.	.	16g 16e'/	.	.	.
.	.	.	.	.	.	.	.	.	.	.	.	.	.	.	16r	.	.	.	16r	.	.	.
!	!	!	!	!	!	!	!	!	!LO:SIC:v:s=8c#	!	!	!	!	!	!	!	!	!	!	!	!	!
.	.	.	.	.	8r	.	8A/	.	8c/	.	8g/	.	.	.	16bJJ 16g/	.	.	.	16bJJ 16g'/	.	.	.
.	.	.	.	.	.	.	.	.	.	.	.	.	.	.	16r	.	.	.	16r	.	.	.
=13	=13	=13	=13	=13	=13	=13	=13	=13	=13	=13	=13	=13	=13	=13	=13	=13	=13	=13	=13	=13	=13	=13
2r	2r	.	2r	.	8D\	.	8r	.	8r	.	8r	.	2r	.	8a 8f#/	.	2ryy	.	8a 8f#/	.	2ryy	.
.	.	.	.	.	.	.	.	.	.	.	.	.	.	.	8qb 8qg/	.	.	.	(8qb 8qg/	.	.	.
.	.	.	.	.	8r	.	8A/	.	8d/	.	8f#/	.	.	.	16.aLL 16.f#/	.	.	.	16.aLL 16.f#/)	.	.	.
.	.	.	.	.	.	.	.	.	.	.	.	.	.	.	32g#XJJk 32e#X/	.	.	.	32g#XJJk 32e#X/|	.	.	.
.	.	.	.	.	8D\	.	8r	.	8r	.	8r	.	.	.	8a 8f#/	.	.	.	8a 8f#/|	.	.	.
.	.	.	.	.	8r	.	8A/	.	8d/	.	8f#/	.	.	.	8r	.	.	.	8r	.	.	.
!!LO:LB:g=original
=14	=14	=14	=14	=14	=14	=14	=14	=14	=14	=14	=14	=14	=14	=14	=14	=14	=14	=14	=14	=14	=14	=14
!	!	!	!	!	!	!	!	!	!	!	!	!	!	!	!	!	!	!	!	!	!LO:TX:a:t=Flauto col 2o. Clarinetto in 8va\nPicolo col 1o Clarinetto uniſono	!
2r	2r	.	2r	.	8D\	.	8r	.	8r	.	8r	.	2r	.	8a 8f#/	.	2r	.	8a 8f#/	.	8aayy 8ff#\yy	.
.	.	.	.	.	.	.	.	.	.	.	.	.	.	.	8qb 8qg/	.	.	.	(8qb (8qg/	.	(y8qbbyy (y8qgg/yy	.
.	.	.	.	.	8r	.	8A/	.	8d/	.	8f#/	.	.	.	16.aLL 16.f#/	.	.	.	16.aLL 16.f#/))	.	16.aaLLyy 16.ff#\))yy	.
.	.	.	.	.	.	.	.	.	.	.	.	.	.	.	32g#XJJk 32e#X/	.	.	.	32g#XJJk 32e#X/	.	32gg#XJJkyy 32ee#X|\yy	.
.	.	.	.	.	8D\	.	8r	.	8r	.	8r	.	.	.	8a 8f#/	.	.	.	16a 16f#/	.	16aayy 16ff#|\yy	.
.	.	.	.	.	.	.	.	.	.	.	.	.	.	.	.	.	.	.	16r	.	16ryy	.
.	.	.	.	.	8r	.	8A/	.	8d/	.	8f#/	.	.	.	8r	.	.	.	8ff# 8dd|\	.	8fff#yy 8ddd\yy	.
=15	=15	=15	=15	=15	=15	=15	=15	=15	=15	=15	=15	=15	=15	=15	=15	=15	=15	=15	=15	=15	=15	=15
2r	2r	.	2r	.	8GG/	.	8r	.	8r	.	8r	.	2r	.	2r	.	2r	.	16ff# 16dd\	.	16fff#yy 16ddd\yy	.
.	.	.	.	.	.	.	.	.	.	.	.	.	.	.	.	.	.	.	16r	.	16ryy	.
!	!	!	!	!	!	!	!	!	!	!	!	!	!	!	!	!	!	!	!LO:TUP:a:problem=klamra łukowa, łuczek zamiast numeru	!	!LO:TUP:a:problem=klamra łukowa, łuczek zamiast numeru	!
.	.	.	.	.	8r	.	8B/	.	8e/	.	8g/	.	.	.	.	.	.	.	24eeLL 24cc#X\	.	24eeeLLyy 24ccc#X\yy	.
.	.	.	.	.	.	.	.	.	.	.	.	.	.	.	.	.	.	.	24dd 24b\	.	24dddyy 24bb\yy	.
.	.	.	.	.	.	.	.	.	.	.	.	.	.	.	.	.	.	.	24cc#JJ 24a#X\	.	24ccc#JJyy 24aa#X\yy	.
.	.	.	.	.	8GG/	.	8r	.	8r	.	8r	.	.	.	.	.	.	.	8eeL 8cc#'\	.	8eeeLyy 8ccc#'\yy	.
!	!	!	!	!	!	!	!	!	!	!	!	!	!	!	!	!	!	!	!LO:TUP:a:problem=klamra łukowa, łuczek zamiast numeru	!	!LO:TUP:a:problem=klamra łukowa, łuczek zamiast numeru	!
.	.	.	.	.	8r	.	8B/	.	8e/	.	8g/	.	.	.	.	.	.	.	24ddL 24b\	.	24dddLyy 24bb\yy	.
.	.	.	.	.	.	.	.	.	.	.	.	.	.	.	.	.	.	.	24b 24g\	.	24bbyy 24gg\yy	.
.	.	.	.	.	.	.	.	.	.	.	.	.	.	.	.	.	.	.	24gJJ 24e\	.	24ggJJyy 24ee\yy	.
=16	=16	=16	=16	=16	=16	=16	=16	=16	=16	=16	=16	=16	=16	=16	=16	=16	=16	=16	=16	=16	=16	=16
!	!	!	!	!	!	!	!	!	!	!	!	!	!	!	!	!	!	!	!LO:TX:t=P:problem=skreślony drugi głos w tt. 16-17	!	!LO:TX:t=P:problem=skreślony drugi głos w tt. 16-17	!
!	!	!	!	!	!	!	!	!	!	!	!	!	!	!	!LO:TX:a:t=due	!	!	!	!LO:TX:a:t=Unis	!	!LO:TX:a:t=Unis	!
2r	2r	.	2r	.	8AA/	.	8r	.	8r	.	8r	.	2r	.	16d'/LL	.	2r	.	16f#'/LL	.	16ff#'\LLyy	.
.	.	.	.	.	.	.	.	.	.	.	.	.	.	.	16e'/	.	.	.	16g'/	.	16gg'\yy	.
.	.	.	.	.	8r	<	8A/	.	8d/	.	8f#/	<	.	.	16f#'/	.	.	.	16a'/	<	16aa'\yy	<
.	.	.	.	.	.	.	.	.	.	.	.	.	.	.	16g'/JJ	.	.	.	16b'/JJ	.	16bb'\JJyy	.
.	.	.	.	.	8AA/	.	8r	.	8r	<	8r	.	.	.	16a'/LL	.	.	.	16cc#X'\LL	.	16ccc#X'\LLyy	.
.	.	.	.	.	.	.	.	.	.	.	.	.	.	.	16b'/	.	.	.	16dd'\	.	16ddd'\yy	.
!	!	!	!	!	!	!	!	!	!	!	!	!	!	!	!LO:SIC:v:s=16cc#	!	!	!	!	!	!	!
.	.	.	.	.	8r	.	8A/	.	8d/	.	8f#/	.	.	.	16cc'/	.	.	.	16ee'\	.	16eee'\yy	.
.	.	.	.	.	.	.	.	.	.	.	.	.	.	.	16dd'/JJ	.	.	.	16ff#'\JJ	[[	16fff#'\JJyy	[[
=17	=17	=17	=17	=17	=17	=17	=17	=17	=17	=17	=17	=17	=17	=17	=17	=17	=17	=17	=17	=17	=17	=17
*	*	*	*	*	*	*	*	*	*	*	*	*	*	*	*^	*	*^	*	*^	*	*	*
4r	4r	.	4r	.	16AA/	[	8r	.	8r	[ >	8r	[	4r	.	16ee/LL	4.ryy	.	4r	4.ryy	.	16gg'^<\LL	4.ryy	sf	16ggg'^\LLyy	sfy
.	.	.	.	.	16r	>	.	.	.	.	.	>	.	.	16cc#X/	.	.	.	.	.	16ee'\	.	.	16eee'\yy	.
!	!	!	!	!	!	!	!	!	!LO:SIC:v:n=2:s=8c#	!	!	!	!	!	!	!	!	!	!	!	!	!	!	!	!
.	.	.	.	.	8AA/L	.	8A/L	.	8eL 8c/	]]	8g/L	.	.	.	16g/	.	.	.	.	.	16b'\	.	.	16bb'\yy	.
!	!	!	!	!	!	!	!	!	!	!	!	!	!	!	!	!	!	!	!	!	!LO:SIC:v:s=16cc#	!	!	!LO:SIC:v:s=16ccc#	!
.	.	.	.	.	.	.	.	.	.	.	.	.	.	.	16e/JJ	.	.	.	.	.	16cc'\JJ	.	.	16ccc'\JJyy	.
!LO:N:vis=2	!	!	!	!	!	!	!	!	!	!	!	!	!	!	!	!	!	!	!	!	!	!	!	!	!
4r	8r	.	8r	.	16D/Jk	]	16A/Jk	.	16d/Jk	.	16f#/Jk	.	8r	.	16f# 16d/	.	.	8r	.	.	16dd'\	.	.	16ddd'\yy	.
.	.	.	.	.	16r	.	16r	.	16r	.	16r	]	.	.	16r	.	.	.	.	.	16r	.	.	16ryy	.
!	!	!LO:DY:rj	!	!LO:DY:rj	!	!LO:DY:rj	!	!LO:DY:rj	!	!LO:DY:rj	!	!LO:DY:rj	!	!LO:DY:rj	!	!	!	!	!	!LO:DY:rj	!	!	!	!	!LO:DY:rj
.	8Ree\	f	8D\	f	8D\	f	8d\	f	8dd\	f	8dd\	f	8D\	f	8d/	8d\	.	8d/	8d\	f	8dd/	8dd\	.	8ddd\	f
*	*	*	*	*	*	*	*	*	*	*	*	*	*	*	*v	*v	*	*	*	*	*v	*v	*	*	*
*	*	*	*	*	*	*	*	*	*	*	*	*	*	*	*	*	*v	*v	*	*	*	*	*
!!LO:PB:g=original
=18	=18	=18	=18	=18	=18	=18	=18	=18	=18	=18	=18	=18	=18	=18	=18	=18	=18	=18	=18	=18	=18	=18
!	!	!	!	!	!	!LO:DY:rj	!	!	!LO:TX:a:t=Unis	!	!	!	!	!	!	!LO:DY:rj	!	!LO:DY:rj	!	!	!	!LO:DY:rj
8Ra/	8Ree\	.	8D\	.	8d 8D\	f	8gL 8G'\	.	8ggLyy 8b-Xyy 8d'\yy	.	8ggL 8b-X 8d'\	.	8D\	.	8g 8B-/	f	8d 8G\	f	8gg 8b-X\	.	8ggg\	f
8r	8r	.	8r	.	8r	.	(32f#\LL	.	(y32ff#\LLyy	.	(32ff#\LL	.	8r	.	8r	.	8r	.	8r	.	8r	.
.	.	.	.	.	.	.	32g\	.	32gg\yy	.	32gg\	.	.	.	.	.	.	.	.	.	.	.
.	.	.	.	.	.	.	32d\	.	32dd\yy	.	32dd\	.	.	.	.	.	.	.	.	.	.	.
.	.	.	.	.	.	.	32B-X\JJJ)	.	32b-X\JJJyy	.	32b-X\JJJ	.	.	.	.	.	.	.	.	.	.	.
4r	4r	.	4r	.	4r	.	8G/	.	8g/)yy	.	8g/)	.	4r	.	4r	.	4r	.	8r	.	8r	.
.	.	.	.	.	.	.	8r	.	8ryy	.	8r	.	.	.	.	.	.	.	8dd\	.	8ddd\	p
=19	=19	=19	=19	=19	=19	=19	=19	=19	=19	=19	=19	=19	=19	=19	=19	=19	=19	=19	=19	=19	=19	=19
*	*tremolo	*	*	*	*	*	*	*	*	*	*	*	*	*	*	*	*	*	*	*	*	*
!	!	!LO:DY:rj	!LO:TX:a:t=1.	!	!	!	!	!LO:DY:rj	!	!LO:DY:rj	!	!	!	!	!	!	!	!LO:DY:rj	!	!	!	!
2r	8Ree\L	p	2r	.	2r	.	8r	p	8r	p	2r	.	2r	.	(4d (4B-X/	.	[4.g [>4.G\	p	16.gg\LL	.	16.ggg\LL|	.
.	.	.	.	.	.	.	.	.	.	.	.	.	.	.	.	.	.	.	32ffn\K	.	32fffn\K|	.
.	8Ree\	.	.	.	.	.	(8B-X\L	.	8dL 8G/	.	.	.	.	.	.	.	.	.	16.ee-X\	.	16.eee-X\|	.
.	.	.	.	.	.	.	.	.	.	.	.	.	.	.	.	.	.	.	32dd\JJk	.	32ddd\JJk|	.
.	8Ree\J	.	.	.	.	.	8.c\J)	.	8.e-XJ 8.G/	.	.	.	.	.	8.e-X 8.c/))	.	.	.	(8ee-X\L	.	(8eee-\L	.
*	*Xtremolo	*	*	*	*	*	*	*	*	*	*	*	*	*	*	*	*	*	*	*	*	*
.	8r	.	.	.	.	.	.	.	.	.	.	.	.	.	.	.	16g] 16G\]	.	16cc\Jk)	.	16ccc\Jk)	.
.	.	.	.	.	.	.	16r	.	16r	.	.	.	.	.	16r	.	16r	.	16r	.	16r	.
=20	=20	=20	=20	=20	=20	=20	=20	=20	=20	=20	=20	=20	=20	=20	=20	=20	=20	=20	=20	=20	=20	=20
*	*	*	*	*	*	*	*	*	*	*	*	*	*	*	*^	*	*^	*	*	*	*	*
!	!	!LO:DY:rj	!	!	!	!LO:DY:rj	!	!LO:DY:rj	!	!LO:DY:rj	!	!LO:DY:rj	!	!LO:DY:rj:a	!	!	!	!	!	!	!	!	!	!LO:DY:rj
8Ra/	8Ree\	f	8D\	.	8d 8D\	f	8ddL 8fn 8A\	f	8ddL 8fn 8A/	f	8dddL 8dd\	f	8D\	f	8a/	8fn\	.	8d/	8d\	.	8dd\	.	8ddd\	f
8r	8r	.	8r	.	8r	.	(32cc#X\LL	.	(32cc#X/LL	.	(32ccc#X\LL	.	8r	.	8r	4.ryy	.	8r	4.ryy	.	8r	.	8r	.
.	.	.	.	.	.	.	32dd\	.	32dd/	.	32ddd\	.	.	.	.	.	.	.	.	.	.	.	.	.
.	.	.	.	.	.	.	32a\	.	32a/	.	32ccc#\	.	.	.	.	.	.	.	.	.	.	.	.	.
.	.	.	.	.	.	.	32f\JJJ	.	32f/JJJ	.	32ff#\JJJ	.	.	.	.	.	.	.	.	.	.	.	.	.
4r	4r	.	4r	.	4r	.	8d\)	.	8d/)	.	8dd\)	.	4r	.	4r	.	.	4r	.	.	8r	.	8r	.
.	.	.	.	.	.	.	8r	.	8r	.	8r	.	.	.	.	.	.	.	.	.	8a/	.	8aa\	p
*	*	*	*	*	*	*	*	*	*	*	*	*	*	*	*v	*v	*	*	*	*	*	*	*	*
*	*	*	*	*	*	*	*	*	*	*	*	*	*	*	*	*	*v	*v	*	*	*	*	*
=21	=21	=21	=21	=21	=21	=21	=21	=21	=21	=21	=21	=21	=21	=21	=21	=21	=21	=21	=21	=21	=21	=21
*	*tremolo	*	*	*	*	*	*	*	*	*	*	*	*	*	*	*	*	*	*	*	*	*
!	!	!LO:DY:rj	!LO:TX:a:t=1.	!	!	!	!	!	!	!	!	!	!	!	!	!	!	!LO:DY:rj	!	!	!	!
2r	8Ree\L	p	2r	.	2r	.	8r	.	8r	.	2r	.	2r	.	(4f# (4c/	.	[4d [4D/	p	16.dd\LL	.	16.ddd\LL	.
.	.	.	.	.	.	.	.	.	.	.	.	.	.	.	.	.	.	.	32cc\K	.	32ccc\K	.
!	!	!	!	!	!	!	!	!	!	!LO:DY:rj	!	!	!	!	!	!	!	!	!	!	!	!
.	8Ree\	.	.	.	.	.	([8dL 8c\	.	(8f#L (8A/	p	.	.	.	.	.	.	.	.	16.b-X\	.	16.bb-X\	.
.	.	.	.	.	.	.	.	.	.	.	.	.	.	.	.	.	.	.	32a\JJk	.	32aa\JJk	.
!	!	!	!	!	!	!	!LO:SIC:v:n=2:s=8.B-	!	!	!	!	!	!	!	!	!	!	!	!	!	!	!
.	8Ree\J	.	.	.	.	.	8.d]J 8.B\)	.	8.gJ 8.G/))	.	.	.	.	.	8.g 8.B-X/))	.	8.d] 8.D/]	.	(8b-/L	.	(8bb-\L	.
*	*Xtremolo	*	*	*	*	*	*	*	*	*	*	*	*	*	*	*	*	*	*	*	*	*
.	8r	.	.	.	.	.	.	.	.	.	.	.	.	.	.	.	.	.	16g/Jk)	.	16gg\Jk)	.
.	.	.	.	.	.	.	16r	.	16r	.	.	.	.	.	16r	.	16r	.	16r	.	16r	.
=22	=22	=22	=22	=22	=22	=22	=22	=22	=22	=22	=22	=22	=22	=22	=22	=22	=22	=22	=22	=22	=22	=22
!	!	!LO:DY:rj	!	!	!	!	!	!	!LO:TX:a:t=Unis	!	!	!	!	!	!	!LO:DY:rj	!	!	!	!	!	!LO:DY:rj
8Ra/	8Ree\	f	8D\	.	8d 8D\	.	8gL 8G'\	.	8ggLyy 8b-Xyy 8d'\yy	.	8ggL 8b-X 8d'\	.	8D/	.	8g 8B-X/	f	8d 8G\	.	8gg 8b-X\	.	8ggg\	f
8r	8r	.	8r	.	8r	.	(32f#\LL	.	(y32ff#X\LLyy	.	(32ff#X\LL	.	8r	.	8r	.	8r	.	8r	.	8r	.
.	.	.	.	.	.	.	32g\	.	32gg\yy	.	32gg\	.	.	.	.	.	.	.	.	.	.	.
.	.	.	.	.	.	.	32d\	.	32dd\yy	.	32dd\	.	.	.	.	.	.	.	.	.	.	.
!	!	!	!	!	!	!	!LO:SIC:v:s=32B-	!	!	!	!	!	!	!	!	!	!	!	!	!	!	!
.	.	.	.	.	.	.	32B\JJJ)	.	32b-\JJJyy	.	32b-\JJJ	.	.	.	.	.	.	.	.	.	.	.
4r	4r	.	4r	.	4r	.	8G/	.	8g/)yy	.	8g/)	.	4r	.	4r	.	4r	.	8r	.	8r	.
!	!	!	!	!	!	!	!	!	!	!	!	!	!	!	!	!	!	!	!	!	!	!LO:DY:rj
.	.	.	.	.	.	.	8r	.	8ryy	.	8r	.	.	.	.	.	.	.	8dd\	.	8ddd\	p
!!LO:LB:g=original
=23	=23	=23	=23	=23	=23	=23	=23	=23	=23	=23	=23	=23	=23	=23	=23	=23	=23	=23	=23	=23	=23	=23
*	*tremolo	*	*	*	*	*	*	*	*	*	*	*	*	*	*	*	*	*	*	*	*	*
!	!	!LO:DY:rj	!LO:TX:a:t=1.	!	!	!	!	!	!	!	!	!	!	!	!	!	!	!	!	!	!	!
!	!	!	!LO:TX:t=P:problem=partie inst. perkusyjnych zapisane oddzielnie, inne LB	!	!	!	!	!	!	!	!	!	!	!	!	!	!	!LO:DY:rj	!	!	!	!LO:DY:rj
2r	8Ree\L	p	2r	.	2r	.	8r	.	8r	.	2r	.	2r	.	(4d (4B-X/	.	[4g [>4G\	p	16.gg\LL	.	16.ggg'\LL	p
.	.	.	.	.	.	.	.	.	.	.	.	.	.	.	.	.	.	.	32ffn\K	.	32fffn'\K	.
.	8Ree\	.	.	.	.	.	(8B-X/L	.	(>8dL [8G/	.	.	.	.	.	.	.	.	.	16.ee-X\	.	16.eee-X'\	.
.	.	.	.	.	.	.	.	.	.	.	.	.	.	.	.	.	.	.	32dd\JJk	.	32ddd'\JJk	.
.	8Ree\J	.	.	.	.	.	8.c/J)	.	8.e-XJ 8.G/])	.	.	.	.	.	8.e-X 8.c/))	.	8.g] 8.G\]	.	(8ee-\L	.	(8eee-\L	.
*	*Xtremolo	*	*	*	*	*	*	*	*	*	*	*	*	*	*	*	*	*	*	*	*	*
.	8r	.	.	.	.	.	.	.	.	.	.	.	.	.	.	.	.	.	16cc\Jk)	.	16ccc\Jk)	.
.	.	.	.	.	.	.	16r	.	16r	.	.	.	.	.	16r	.	16r	.	16r	.	16r	.
!LO:LB:g=original	!LO:LB:g=original	!	!LO:LB:g=original	!	!	!	!	!	!	!	!	!	!	!	!	!	!	!	!	!	!	!
=24	=24	=24	=24	=24	=24	=24	=24	=24	=24	=24	=24	=24	=24	=24	=24	=24	=24	=24	=24	=24	=24	=24
*	*	*	*	*	*	*	*	*	*	*	*	*	*	*	*	*	*^	*	*^	*	*	*
!	!	!	!	!	!	!LO:DY:rj	!	!LO:DY:rj	!	!	!	!LO:DY:rj	!	!LO:DY:rj:a	!	!	!	!	!LO:DY:rj	!	!	!	!	!LO:DY:rj
8Ra/	8Ree\	.	8C/	.	8D\	f	8dd 8fn 8A\	f	8dd 8fn 8A/	.	8dddL 8dd'\	f	8D\	f	8a 8fn/	.	8d/	8d\	f	8dd/	8dd\	.	8ddd\	f
8r	8r	.	8r	.	8r	.	32cc#X\LLL	.	(32cc#X\LLL	.	(32ccc#X\LL	.	8r	.	8r	.	8r	4.ryy	.	8r	4.ryy	.	8r	.
.	.	.	.	.	.	.	32dd\	.	32dd\	.	32ddd\	.	.	.	.	.	.	.	.	.	.	.	.	.
.	.	.	.	.	.	.	32a\	.	32a\	.	32ccc#\	.	.	.	.	.	.	.	.	.	.	.	.	.
.	.	.	.	.	.	.	32f\JJJ	.	32f\JJJ)	.	32ff#\JJJ	.	.	.	.	.	.	.	.	.	.	.	.	.
4r	4r	.	4r	.	4r	.	8d\	.	8d/	.	8dd\)	.	4r	.	4r	.	4r	.	.	8r	.	.	8r	.
.	.	.	.	.	.	.	8r	.	8r	.	8r	.	.	.	.	.	.	.	.	8a/	.	.	8aa\	.
*	*	*	*	*	*	*	*	*	*	*	*	*	*	*	*	*	*v	*v	*	*	*	*	*	*
*	*	*	*	*	*	*	*	*	*	*	*	*	*	*	*	*	*	*	*v	*v	*	*	*
=25	=25	=25	=25	=25	=25	=25	=25	=25	=25	=25	=25	=25	=25	=25	=25	=25	=25	=25	=25	=25	=25	=25
*	*	*	*	*	*	*	*	*	*	*	*	*	*	*	*	*	*	*	*	*	*^	*
*	*tremolo	*	*	*	*	*	*	*	*	*	*	*	*	*	*	*	*	*	*	*	*	*	*
!	!	!	!	!	!	!LO:DY:rj	!	!	!	!	!	!	!	!	!	!	!	!	!	!	!	!	!
2r	8Ree\L	.	2r	.	(4D\	p	8r	.	8r	.	4r	.	2r	.	(4f# (4c/	.	[4d [4D/	.	16.dd/LL	.	16.ddd\LL	4.ryy	.
.	.	.	.	.	.	.	.	.	.	.	.	.	.	.	.	.	.	.	32ccn/K	.	32cccnX\K	.	.
!	!	!	!	!	!	!	!	!	!	!LO:DY:rj	!	!	!	!	!	!	!	!	!	!	!	!	!
.	8Ree\	.	.	.	.	.	8dL 8A\	.	(8f#L (8c/	p	.	.	.	.	.	.	.	.	16.b-X/	.	16.bb-X\	.	.
.	.	.	.	.	.	.	.	.	.	.	.	.	.	.	.	.	.	.	32a/JJk	.	32aa\JJk	.	.
.	8Ree\J	.	.	.	8G\)	.	8dJ 8G\	.	8gJ 8B-X/))	.	8r	.	.	.	8.g 8.B-X/))	.	8.d] 8.D/]	.	16g/	.	16gg\	.	.
!	!	!	!	!	!	!	!	!	!	!	!	!	!	!	!	!	!	!	!	!	!LO:TX:a:t=Picolo	!	!
*	*Xtremolo	*	*	*	*	*	*	*	*	*	*	*	*	*	*	*	*	*	*	*	*	*	*
.	.	.	.	.	.	.	.	.	.	.	.	.	.	.	.	.	.	.	16r	.	16r	.	.
.	8r	.	.	.	8r	.	8r	.	8r	.	(8dd\	mf	.	.	.	.	.	.	8r	.	8dd/	8re	.
.	.	.	.	.	.	.	.	.	.	.	.	.	.	.	16r	.	16r	.	.	.	.	.	.
=26	=26	=26	=26	=26	=26	=26	=26	=26	=26	=26	=26	=26	=26	=26	=26	=26	=26	=26	=26	=26	=26	=26	=26
.	.	.	.	.	.	.	.	.	.	.	(16qqee/LL)	.	.	.	.	.	.	.	.	.	.	(16qqee/LL	.
.	.	.	.	.	.	.	.	.	.	.	16qqdd/	.	.	.	.	.	.	.	.	.	.	16qqdd/	.
!	!	!	!LO:TX:a:t=8.	!	!	!	!	!	!	!	!	!	!	!	!	!	!	!	!	!	!	!	!
.	.	.	.	.	.	.	.	.	.	.	16qqcc#X/JJ	.	.	.	.	.	.	.	.	.	.	16qqcc#X/JJ	.
!	!	!	!	!	!	!	!	!	!	!LO:DY:rj	!	!	!	!	!	!	!	!	!	!	!	!	!
2r	2r	.	2r	.	8G\	.	8r	.	8r	mf	8dd\)	.	2r	.	2r	.	2r	.	2r	.	2re	8dd/)	.
*	*	*	*	*	*	*	*tremolo	*	*tremolo	*	*	*	*	*	*	*	*	*	*	*	*	*	*
.	.	.	.	.	8r	.	8dL 8G/	.	8gL 8B/	.	16bb'\LL	.	.	.	.	.	.	.	.	.	.	16bb/	.
.	.	.	.	.	.	.	.	.	.	.	16r	.	.	.	.	.	.	.	.	.	.	16rccc	.
.	.	.	.	.	4r	.	8d 8G/	.	8g 8B/	.	16bb'\	.	.	.	.	.	.	.	.	.	.	16bb/	.
.	.	.	.	.	.	.	.	.	.	.	16r	.	.	.	.	.	.	.	.	.	.	16rccc	.
.	.	.	.	.	.	.	8dJ 8G/	.	8gJ 8B/	.	16bb'\JJ	.	.	.	.	.	.	.	.	.	.	16bb/	.
.	.	.	.	.	.	.	.	.	.	.	16r	.	.	.	.	.	.	.	.	.	.	16ryy	.
!!LO:PB:g=original
=27	=27	=27	=27	=27	=27	=27	=27	=27	=27	=27	=27	=27	=27	=27	=27	=27	=27	=27	=27	=27	=27	=27	=27
2r	2r	.	2r	.	8C/	.	8r	.	8r	.	16.bb\LL	.	2r	.	4r	.	2r	.	2r	.	2re	16.bb/LL	.
.	.	.	.	.	.	.	.	.	.	.	32ccc\K	.	.	.	.	.	.	.	.	.	.	32aa/K	.
.	.	.	.	.	8r	.	8eL 8c\	.	8gL 8A/	.	16.gg#X\	.	.	.	.	.	.	.	.	.	.	16.gg/	.
.	.	.	.	.	.	.	.	.	.	.	32aa\JJk	.	.	.	.	.	.	.	.	.	.	32aa/JJk	.
.	.	.	.	.	4r	.	8e 8c\	.	8g 8A/	.	(8.ee\L	.	.	.	(8.e/L	.	.	.	.	.	.	(>8.ee/L	.
.	.	.	.	.	.	.	8eJ 8c\	.	8gJ 8A/	.	.	.	.	.	.	.	.	.	.	.	.	.	.
.	.	.	.	.	.	.	.	.	.	.	16ee-X\Jk	.	.	.	16e-X/Jk	.	.	.	.	.	.	16ee-X/Jk	.
=28	=28	=28	=28	=28	=28	=28	=28	=28	=28	=28	=28	=28	=28	=28	=28	=28	=28	=28	=28	=28	=28	=28	=28
2r	2r	.	2r	.	8D\	.	8r	.	8r	.	8dd\)	.	2r	.	8d/)	.	2r	.	2r	.	2re	8dd/)	.
.	.	.	.	.	8r	.	8dL 8c\	.	8f#L 8A/	.	16aa\LL	.	.	.	8r	.	.	.	.	.	.	16aa/LL	.
.	.	.	.	.	.	.	.	.	.	.	16r	.	.	.	.	.	.	.	.	.	.	16rccc	.
.	.	.	.	.	4r	.	8d 8c\	.	8f# 8A/	.	16aa\	.	.	.	4r	.	.	.	.	.	.	16aa/	.
.	.	.	.	.	.	.	.	.	.	.	16r	.	.	.	.	.	.	.	.	.	.	16rccc	.
.	.	.	.	.	.	.	8dJ 8c\	.	8f#J 8A/	.	16aa\JJ	.	.	.	.	.	.	.	.	.	.	16aa/JJ	.
.	.	.	.	.	.	.	.	.	.	.	16rccc	.	.	.	.	.	.	.	.	.	.	16rccc	.
=29	=29	=29	=29	=29	=29	=29	=29	=29	=29	=29	=29	=29	=29	=29	=29	=29	=29	=29	=29	=29	=29	=29	=29
2r	2r	.	2r	.	8GG/	.	8r	.	8r	.	16.aa\LL	.	2r	.	4r	.	2r	.	2r	.	2re	16.aa/LL	.
.	.	.	.	.	.	.	.	.	.	.	32bb\K	.	.	.	.	.	.	.	.	.	.	32bb/K	.
.	.	.	.	.	8r	.	8dL 8G\	.	8gL 8B/	.	16.ff#\	.	.	.	.	.	.	.	.	.	.	16.ff#/	.
.	.	.	.	.	.	.	.	.	.	.	32aa\JJk	.	.	.	.	.	.	.	.	.	.	32aa/JJk	.
.	.	.	.	.	4r	.	8d 8G\	.	8g 8B/	.	16.gg\LL	.	.	.	16.g/LL	.	.	.	.	.	.	16.gg#X/LL	.
.	.	.	.	.	.	.	.	.	.	.	32ff#\K	.	.	.	32f#/K	.	.	.	.	.	.	32ff#/K	.
.	.	.	.	.	.	.	8dJ 8G\	.	8gJ 8B/	.	16.ee\	.	.	.	16.e/	.	.	.	.	.	.	16.ee/	.
.	.	.	.	.	.	.	.	.	.	.	32ee-X\JJk	.	.	.	32e-X/JJk	.	.	.	.	.	.	32ee-X/JJk	.
*	*	*	*	*	*	*	*	*	*	*	*	*	*	*	*	*	*	*	*	*	*v	*v	*
=30	=30	=30	=30	=30	=30	=30	=30	=30	=30	=30	=30	=30	=30	=30	=30	=30	=30	=30	=30	=30	=30	=30
*	*	*	*	*	*	*	*	*	*	*	*	*	*	*	*	*	*^	*	*^	*	*	*
*	*	*	*	*	*	*	*	*	*	*	*	*	*2\right	*	*	*	*2\right	*	*	*2\right	*	*	*	*
!	!	!	!	!	!	!LO:DY:rj	!	!LO:DY:rj	!	!	!	!LO:DY:rj	!	!LO:DY:rj	!	!	!	!	!	!	!	!LO:DY:rj	!LO:TX:a:t=Picolo et\nFlauto col Vo 1o.	!
2r	2r	.	2r	.	8G\	f	8r	f	8r	.	8dd\	f	2G\	f	8d/	.	2d/	2d\	.	2b/	2g\	f	8dd\yy	fy
.	.	.	.	.	8r	.	8dL 8G\	.	8gL 8B/	.	16bb\LL	.	.	.	8r	.	.	.	.	.	.	.	16bb\LLyy	.
.	.	.	.	.	.	.	.	.	.	.	16r	.	.	.	.	.	.	.	.	.	.	.	16ryy	.
.	.	.	.	.	4r	.	8d 8G\	.	8g 8B/	.	16bb\	.	.	.	4r	.	.	.	.	.	.	.	16bb\yy	.
.	.	.	.	.	.	.	.	.	.	.	16r	.	.	.	.	.	.	.	.	.	.	.	16ryy	.
.	.	.	.	.	.	.	8dJ 8G\	.	8gJ 8B/	.	16bb\JJ	.	.	.	.	.	.	.	.	.	.	.	16bb\JJyy	.
.	.	.	.	.	.	.	.	.	.	.	16r	.	.	.	.	.	.	.	.	.	.	.	16ryy	.
=31	=31	=31	=31	=31	=31	=31	=31	=31	=31	=31	=31	=31	=31	=31	=31	=31	=31	=31	=31	=31	=31	=31	=31	=31
2r	2r	.	2r	.	8C/	.	8r	.	8r	.	16.bb\LL	.	2C/	.	4r	.	2e/	2e\	.	2cc/	2a\	.	16.bb\LLyy	.
.	.	.	.	.	.	.	.	.	.	.	32ccc\K	.	.	.	.	.	.	.	.	.	.	.	32ccc\Kyy	.
.	.	.	.	.	8r	.	8eL 8c\	.	8gL 8A/	.	16.gg#X\	.	.	.	.	.	.	.	.	.	.	.	16.gg#X\yy	.
.	.	.	.	.	.	.	.	.	.	.	32aa\JJk	.	.	.	.	.	.	.	.	.	.	.	32aa\JJkyy	.
.	.	.	.	.	4r	.	8e 8c\	.	8g 8A/	.	(8..eee\L	.	.	.	(>8..eeL 8..e/	.	.	.	.	.	.	.	(y8..eee\Lyy	.
.	.	.	.	.	.	.	8eJ 8c\	.	8gJ 8A/	.	.	.	.	.	.	.	.	.	.	.	.	.	.	.
.	.	.	.	.	.	.	.	.	.	.	32eee-X\Jkk	.	.	.	32ee-XJkk 32e/	.	.	.	.	.	.	.	32eee-X\Jkkyy	.
*	*	*	*	*	*	*	*Xtremolo	*	*Xtremolo	*	*	*	*	*	*	*	*	*	*	*	*	*	*	*
*	*	*	*	*	*	*	*	*	*	*	*	*	*	*	*	*	*v	*v	*	*	*	*	*	*
!!LO:LB:g=original
=32	=32	=32	=32	=32	=32	=32	=32	=32	=32	=32	=32	=32	=32	=32	=32	=32	=32	=32	=32	=32	=32	=32	=32
!	!	!	!	!	!	!	!	!	!	!	!	!	!	!	!LO:TX:t=P:problem=brak zakończenia łuku	!	!	!	!	!	!	!	!
2r	2r	.	2r	.	8D\	.	8r	.	8r	.	8ddd\)	.	8D\	.	8dd 8d/)	.	2f# 2d\	.	2cc/	2a\	.	8ddd\)yy	.
.	.	.	.	.	8r	.	8d 8c\	.	8f# 8A/	.	16aa'\LL	.	8r	.	8r	.	.	.	.	.	.	16aa\LLyy	.
.	.	.	.	.	.	.	.	.	.	.	16r	.	.	.	.	.	.	.	.	.	.	16ryy	.
.	.	.	.	.	8D\	.	8r	.	8r	.	16aa'\	.	8D\	.	4r	.	.	.	.	.	.	16aa\yy	.
.	.	.	.	.	.	.	.	.	.	.	16r	.	.	.	.	.	.	.	.	.	.	16ryy	.
.	.	.	.	.	8r	.	8d 8c\	.	8f# 8A/	.	16aa'\JJ	.	8r	.	.	.	.	.	.	.	.	16aa\JJyy	.
.	.	.	.	.	.	.	.	.	.	.	16r	.	.	.	.	.	.	.	.	.	.	16ryy	.
*	*	*	*	*	*	*	*	*	*	*	*	*	*	*	*	*	*	*	*v	*v	*	*	*
=33	=33	=33	=33	=33	=33	=33	=33	=33	=33	=33	=33	=33	=33	=33	=33	=33	=33	=33	=33	=33	=33	=33
!	!LO:TX:b:t=ſeque 3.	!	!	!	!	!	!	!	!	!	!	!	!	!	!	!	!	!	!	!	!	!
!	!LO:TX:a:t=fine	!	!	!	!LO:TX:t=P:problem=mixed beam	!	!	!	!	!	!	!	!	!	!	!	!	!	!	!	!	!
2r	2r	.	2r	.	8G\L	.	8dL 8G\	.	8gL 8B/	.	16.bb\LL	.	8G\L	.	16.b/LL	.	8gL 8d\	.	8bL 8g\	.	16.bb\LLyy	.
.	.	.	.	.	.	.	.	.	.	.	32ccc\K	.	.	.	32cc/K	.	.	.	.	.	32ccc\Kyy	.
.	.	.	.	.	8D/	.	8d 8A\	.	8f# 8c/	.	16.aa\	.	8D\	.	16.a/	.	8f# 8d\	.	8cc 8a\	.	16.aa\yy	.
.	.	.	.	.	.	.	.	.	.	.	32bb\JJk	.	.	.	32b/JJk	.	.	.	.	.	32bb\JJkyy	.
.	.	.	.	.	8GG\J	.	8dJ 8G\	.	8gJ 8B/	.	8gg\	.	8G\J	.	8g/	.	8gJ 8d\	.	8bJ 8g\	.	8gg\yy	.
!	!	!	!	!	!	!	!	!	!LO:TX:a:t=fine	!	!	!	!	!	!	!	!	!	!	!	!	!
.	.	.	.	.	8r	.	8r	.	8r	.	8r	.	8r	.	8r	.	8r	.	8r	.	8ryy	.
=:|!	=:|!	=:|!	=:|!	=:|!	=:|!	=:|!	=:|!	=:|!	=:|!	=:|!	=:|!	=:|!	=:|!	=:|!	=:|!	=:|!	=:|!	=:|!	=:|!	=:|!	=:|!	=:|!
*-	*-	*-	*-	*-	*-	*-	*-	*-	*-	*-	*-	*-	*-	*-	*-	*-	*-	*-	*-	*-	*-	*-
!!!system-decoration: <(g1,g2)>{(g3)}{(g4)}
!!!RDF**kern: > = above
!!!RDF**kern: < = below
!!!RDF**kern: | = vertical stroke
!!!ENC: Andrzej Kubiczek
!!!END: 2021-05-14
!!!ENC: Tomasz Grochalski
!!!END: 2021-04-20
!!!YEC: Copyright 2022 Narodowy Instytut Fryderyka Chopina (https://polishscores.org)
!!!YEM: License CC-BY-4.0 (https://creativecommons.org/licenses/by/4.0)
